dist/img/picture/brands/wabco.svg

<svg width="149" height="24" viewBox="0 0 149 24" fill="none" xmlns="http://www.w3.org/2000/svg">
<path d="M110.419 8.92299C110.508 11.2308 110.652 13.9966 104.268 14.0285H97.8974C91.4103 14.0498 91.9347 10.5824 91.7309 8.73186V3.63698C91.7309 1.64829 92.8678 -0.000114836 97.927 0.0205556H103.83C109.369 1.27591e-05 110.463 1.64829 110.463 3.63698V4.61538H103.146C103.146 3.38205 102.781 2.61622 101.702 2.50994H100.522C99.4426 2.49896 99.0781 3.47736 99.0781 4.71146V7.88118C99.1802 9.12562 99.1218 11.1248 100.697 11.1356H101.542C102.81 11.1567 103.029 10.1678 103.102 8.91266L110.419 8.92299ZM43.4871 0.192299L41.2128 10.0285L38.4132 0.192299H29.2125L26.3983 10.0285L24.1381 0.192299H17.139L21.2076 13.8474H32.0408L33.8343 5.16723L35.5842 13.8474H46.4334L50.4862 0.192299H43.4871ZM54.6509 0.192171L49.1095 13.8428H56.5035L57.1605 11.8747H62.4687L63.1836 13.8428H70.8398L65.079 0.192171H54.6509ZM59.916 4.30992L61.5788 9.17232H58.1508L59.916 4.30992ZM82.7548 10.044C82.7548 10.5339 82.2445 10.9918 81.559 10.9487H79.3281V8.07627H81.5158C82.1869 8.07627 82.7548 8.49096 82.7548 8.98054V10.044ZM79.3281 2.69278H81.4721C82.1434 2.69278 82.7122 3.10721 82.7122 3.59679V4.56486C82.7122 5.05444 82.1432 5.46938 81.4721 5.46938H79.3281V2.69278ZM87.7871 6.46947C90.6017 6.20343 90.4854 3.94819 90.4854 3.94819V2.73489C90.4996 0.926481 89.041 0.139092 87.1746 0.192171H71.6278V13.8538H85.4099C87.2328 13.8963 90.6454 13.6723 90.689 10.587L90.7044 9.48046C90.7044 9.48046 90.777 7.02298 87.7871 6.46947ZM119.29 4.6395C119.29 3.40514 119.654 2.42636 120.733 2.43682H122.862C123.912 2.42636 124.437 3.40514 124.394 4.6395V7.87416C124.394 9.08657 124.291 11.0765 122.702 11.087H121.054C119.479 11.0765 119.304 9.12957 119.289 7.87416L119.29 4.6395ZM111.763 3.62869V8.72471C111.865 10.6934 111.852 14.0126 117.933 14.0239H125.663C131.775 14.0126 131.832 10.6769 131.861 8.73798V3.62512C131.858 1.63821 129.629 0.0122623 126.906 0.0109863H116.719C113.993 0.0122623 111.763 1.64012 111.763 3.62869Z" fill="#005AA9"/>
<path d="M23.6863 19.6171C23.582 19.4949 23.4502 19.3864 23.2965 19.2962C22.9713 19.1059 22.5665 19.0027 22.1496 19.0037C21.7561 19.0037 21.4218 19.0593 21.1474 19.1702C20.8784 19.2775 20.6491 19.4308 20.4792 19.6171C20.3084 19.804 20.1842 20.0166 20.1062 20.2548C20.0276 20.497 19.9884 20.7451 19.9893 20.9941C19.9893 21.2378 20.0283 21.4748 20.1062 21.7049C20.1842 21.9352 20.3084 22.1423 20.4792 22.3264C20.6499 22.5105 20.8728 22.6582 21.1474 22.7692C21.422 22.8802 21.7561 22.9357 22.1496 22.9357C22.6841 22.9357 23.1016 22.8166 23.4025 22.5783C23.7031 22.3401 23.887 22.0258 23.9536 21.6359H25.6464C25.6019 21.9988 25.4867 22.3264 25.3011 22.6189C25.1153 22.9113 24.8705 23.1604 24.5661 23.3662C24.2616 23.572 23.9053 23.7291 23.4971 23.8373C23.0887 23.9456 22.6397 23.9997 22.1496 23.9997C21.5408 23.9997 20.9931 23.9226 20.5069 23.7682C20.0206 23.6139 19.6105 23.4014 19.2764 23.1305C18.9423 22.8598 18.6861 22.5415 18.5079 22.176C18.3296 21.8104 18.2406 21.4164 18.2406 20.9939C18.2406 20.5606 18.3296 20.1586 18.5079 19.7875C18.6861 19.4167 18.9422 19.093 19.2764 18.8168C19.6105 18.5407 20.0206 18.3241 20.5069 18.1668C20.9931 18.0099 21.5408 17.9313 22.1496 17.9313C22.5876 17.9313 23.0016 17.9773 23.3913 18.0693C23.781 18.1616 24.1299 18.2954 24.4381 18.4714C24.7461 18.6475 25.0004 18.8654 25.2009 19.1254C25.4013 19.3853 25.5274 19.6833 25.5795 20.019H23.8868C23.8588 19.8763 23.7905 19.7395 23.6863 19.6171ZM32.6845 23.4272C32.0831 23.8089 31.2516 23.9998 30.1899 23.9998C29.1134 23.9998 28.2801 23.8103 27.6898 23.4311C27.0997 23.052 26.8044 22.4672 26.8044 21.6764V18.0693H28.5528V21.6764C28.5528 21.8335 28.5712 21.9879 28.6084 22.1395C28.6455 22.2911 28.7235 22.4252 28.8423 22.5415C28.961 22.658 29.1263 22.7527 29.3378 22.826C29.5492 22.8991 29.8333 22.9356 30.1897 22.9356C30.8133 22.9356 31.2439 22.834 31.4816 22.6309C31.7191 22.4277 31.8379 22.1098 31.8379 21.6764V18.0693H33.5863V21.6764C33.5864 22.4618 33.2858 23.0453 32.6845 23.4272ZM36.4262 22.4401C36.5226 22.5756 36.6507 22.6852 36.8103 22.7692C36.97 22.8531 37.1574 22.9154 37.3727 22.956C37.5878 22.9965 37.8106 23.017 38.0408 23.017C38.1967 23.017 38.3637 23.0076 38.5419 22.9885C38.7156 22.9706 38.8845 22.9336 39.043 22.8789C39.1947 22.8272 39.3281 22.7508 39.4329 22.6555C39.5368 22.5608 39.5889 22.4401 39.5889 22.294C39.5889 22.1371 39.5202 22.0096 39.3829 21.9121C39.2454 21.8146 39.0656 21.7335 38.8428 21.6685C38.6201 21.6035 38.3675 21.5467 38.0854 21.4978C37.7981 21.4481 37.5122 21.3939 37.228 21.3354C36.9333 21.2819 36.6432 21.2154 36.3594 21.1363C36.0773 21.058 35.8249 20.9564 35.6021 20.8316C35.3781 20.7061 35.1939 20.5467 35.062 20.3645C34.9245 20.1777 34.8559 19.9517 34.8559 19.6862C34.8559 19.3884 34.9432 19.1298 35.1176 18.9104C35.292 18.6911 35.5202 18.5084 35.8025 18.362C36.0847 18.2158 36.4039 18.1076 36.7603 18.0371C37.1087 17.9675 37.4682 17.932 37.8294 17.9315C38.2451 17.9315 38.6441 17.9655 39.0266 18.0331C39.4089 18.1008 39.7484 18.2106 40.0456 18.362C40.3408 18.5123 40.5831 18.7114 40.7528 18.943C40.9271 19.1786 41.0144 19.4643 41.0144 19.8H39.3217C39.3068 19.6269 39.2566 19.4832 39.1714 19.3695C39.0859 19.2557 38.9727 19.1664 38.8317 19.1013C38.6906 19.0364 38.5292 18.9904 38.3473 18.9633C38.151 18.9352 37.9515 18.9216 37.7515 18.9227C37.6104 18.9227 37.4692 18.9335 37.3284 18.9552C37.1918 18.9756 37.0616 19.0141 36.9441 19.0689C36.8289 19.1231 36.7343 19.1908 36.6601 19.272C36.5858 19.3533 36.5487 19.4562 36.5487 19.5808C36.5487 19.6946 36.5782 19.7866 36.6377 19.8571C36.697 19.9275 36.814 19.9924 36.9886 20.0519C37.163 20.1116 37.4042 20.1712 37.7123 20.2307C38.1145 20.3081 38.5173 20.3838 38.9206 20.458C39.0691 20.4797 39.275 20.519 39.5387 20.5758C39.8021 20.6327 40.0638 20.7234 40.3239 20.8481C40.5836 20.9728 40.8084 21.1393 40.9976 21.3476C41.1869 21.5563 41.2817 21.8229 41.2817 22.1478C41.2817 22.4132 41.211 22.6597 41.07 22.8871C40.9289 23.1146 40.7193 23.3109 40.4409 23.476C40.1624 23.6413 39.8174 23.7699 39.4053 23.8619C38.9934 23.9539 38.5162 24 37.9742 24C37.536 24 37.1112 23.9605 36.6991 23.8822C36.2872 23.8037 35.9232 23.6805 35.6079 23.5125C35.2921 23.3449 35.0417 23.1308 34.8561 22.8709C34.6704 22.6108 34.5813 22.3022 34.5888 21.9446H36.2816C36.2814 22.1395 36.3295 22.3047 36.4262 22.4401ZM41.6934 19.1418V18.0695H48.2082V19.1418H45.8251V23.8699H44.0767V19.1418H41.6934ZM49.0432 19.7877C49.2214 19.4169 49.4775 19.0932 49.8117 18.8169C50.1458 18.5408 50.556 18.3243 51.0422 18.1669C51.5285 18.01 52.0761 17.9314 52.6849 17.9314C53.301 17.9314 53.8503 18.0099 54.3331 18.1669C54.8157 18.3241 55.2239 18.5408 55.558 18.8169C55.892 19.0932 56.1483 19.4169 56.3265 19.7877C56.5047 20.1587 56.5938 20.5609 56.5938 20.9941C56.5938 21.4165 56.5047 21.8104 56.3265 22.1761C56.1483 22.5417 55.8922 22.8599 55.558 23.1306C55.2239 23.4015 54.8155 23.614 54.3331 23.7684C53.8503 23.9228 53.3011 23.9998 52.6849 23.9998C52.0761 23.9998 51.5285 23.9228 51.0422 23.7684C50.556 23.614 50.1458 23.4015 49.8117 23.1306C49.4777 22.8599 49.2214 22.5417 49.0432 22.1761C48.865 21.8105 48.7759 21.4165 48.7759 20.9941C48.7761 20.5608 48.8651 20.1587 49.0432 19.7877ZM50.6413 21.7049C50.7193 21.9352 50.8435 22.1423 51.0144 22.3264C51.1851 22.5105 51.4079 22.6582 51.6825 22.7692C51.9571 22.8802 52.2912 22.9357 52.6848 22.9357C53.0781 22.9357 53.4122 22.8802 53.687 22.7692C53.9616 22.6582 54.1842 22.5107 54.3551 22.3264C54.5258 22.1423 54.6502 21.9352 54.7282 21.7049C54.8062 21.4747 54.845 21.2378 54.845 20.9941C54.845 20.7396 54.806 20.4931 54.7282 20.2548C54.6502 20.0166 54.5258 19.804 54.3551 19.6171C54.1852 19.4309 53.9559 19.2776 53.687 19.1702C53.4122 19.0593 53.0781 19.0037 52.6848 19.0037C52.2912 19.0037 51.957 19.0593 51.6825 19.1702C51.4135 19.2775 51.1842 19.4308 51.0144 19.6171C50.8435 19.804 50.7193 20.0166 50.6413 20.2548C50.5628 20.497 50.5235 20.7451 50.5245 20.9941C50.5245 21.2378 50.5633 21.4747 50.6413 21.7049ZM60.2464 18.0695L62.1061 22.0583H62.1284L63.8879 18.0695H66.3491V23.8699H64.7121V19.7592H64.6899L62.7411 23.8699H61.3936L59.4448 19.7999H59.4225V23.8699H57.7856V18.0695H60.2464ZM73.8325 18.0695V19.1418H69.6342V20.3847H73.4874V21.3758H69.6342V22.7976H73.9217V23.8699H67.8858V18.0695H73.8325ZM79.3894 18.0695C79.7457 18.0695 80.0665 18.1114 80.3525 18.1954C80.6385 18.2794 80.8833 18.3944 81.0876 18.5407C81.2896 18.6847 81.4488 18.8575 81.5553 19.0484C81.6629 19.2408 81.7169 19.4479 81.7169 19.6699C81.7169 20.0111 81.6183 20.3063 81.4217 20.5553C81.2249 20.8045 80.9038 20.9939 80.4583 21.124V21.1403C80.6734 21.1837 80.8519 21.2499 80.993 21.3393C81.1338 21.4285 81.2508 21.5359 81.3381 21.6562C81.4273 21.778 81.4922 21.912 81.5331 22.0582C81.5737 22.2044 81.6015 22.3507 81.6165 22.4969C81.6241 22.589 81.6316 22.6972 81.6388 22.8219C81.6463 22.9465 81.6592 23.0737 81.6781 23.2036C81.6965 23.3337 81.7262 23.4568 81.767 23.5731C81.8079 23.6896 81.8691 23.7885 81.9508 23.8697H80.2024C80.106 23.6857 80.0466 23.4664 80.0244 23.2117C80.0034 22.9671 79.9699 22.7233 79.924 22.4806C79.8645 22.1774 79.7384 21.9554 79.5455 21.8144C79.3524 21.6735 79.0368 21.6032 78.5989 21.6032H76.8505V23.8698H75.1021V18.0693H79.3894V18.0695ZM78.7657 20.6935C79.1668 20.6935 79.4675 20.6284 79.6679 20.4985C79.8682 20.3685 79.9686 20.1573 79.9686 19.8649C79.9686 19.5832 79.8682 19.3787 79.6679 19.2514C79.4675 19.1243 79.1668 19.0605 78.7657 19.0605H76.8503V20.6935H78.7657ZM91.3384 19.6171C91.2344 19.4952 91.1046 19.3883 90.9486 19.2962C90.7925 19.204 90.6162 19.1325 90.4196 19.0808C90.2213 19.0292 90.0122 19.0032 89.8017 19.0037C89.408 19.0037 89.0741 19.0593 88.7995 19.1702C88.5304 19.2775 88.3011 19.4308 88.1313 19.6171C87.9604 19.804 87.8361 20.0166 87.7582 20.2548C87.6797 20.497 87.6404 20.7451 87.6412 20.9941C87.6412 21.2378 87.6804 21.4748 87.7582 21.7049C87.8361 21.9352 87.9604 22.1423 88.1313 22.3264C88.3022 22.5105 88.5247 22.6582 88.7995 22.7692C89.0741 22.8802 89.408 22.9357 89.8017 22.9357C90.3362 22.9357 90.7537 22.8166 91.0544 22.5783C91.3552 22.3401 91.539 22.0258 91.6057 21.6359H93.2984C93.2538 21.9988 93.1387 22.3264 92.9532 22.6189C92.7674 22.9113 92.5224 23.1604 92.2182 23.3662C91.9137 23.572 91.5574 23.7291 91.1492 23.8373C90.7408 23.9456 90.2916 23.9997 89.8017 23.9997C89.1928 23.9997 88.6452 23.9226 88.159 23.7682C87.6727 23.6139 87.2626 23.4014 86.9285 23.1305C86.5944 22.8598 86.3382 22.5415 86.1599 22.176C85.9817 21.8104 85.8927 21.4164 85.8927 20.9939C85.8927 20.5606 85.9819 20.1586 86.1599 19.7875C86.3382 19.4167 86.5942 19.093 86.9285 18.8168C87.2626 18.5407 87.6727 18.3241 88.159 18.1668C88.645 18.0099 89.1927 17.9313 89.8017 17.9313C90.2397 17.9313 90.6535 17.9773 91.0434 18.0693C91.4332 18.1616 91.7822 18.2954 92.0902 18.4714C92.3982 18.6475 92.6525 18.8654 92.853 19.1254C93.0534 19.3853 93.1795 19.6833 93.2316 20.019H91.5389C91.5108 19.8764 91.4425 19.7395 91.3384 19.6171ZM100.437 18.0695V19.1418H96.2383V20.3847H100.091V21.3758H96.2383V22.7976H100.526V23.8699H94.4899V18.0695H100.437ZM103.443 18.0695L106.762 21.9609H106.785V18.0695H108.421V23.8699H106.673L103.366 19.9867H103.343V23.8699H101.706V18.0695H103.443ZM109.335 19.1418V18.0695H115.849V19.1418H113.466V23.8699H111.718V19.1418H109.335ZM121.05 18.0695C121.406 18.0695 121.727 18.1114 122.013 18.1954C122.299 18.2794 122.544 18.3944 122.748 18.5407C122.95 18.6847 123.109 18.8575 123.216 19.0484C123.323 19.2408 123.377 19.4479 123.377 19.6699C123.377 20.0111 123.279 20.3063 123.082 20.5553C122.885 20.8045 122.564 20.9939 122.119 21.124V21.1403C122.334 21.1837 122.512 21.2499 122.653 21.3393C122.794 21.4285 122.911 21.5359 122.999 21.6562C123.088 21.778 123.153 21.912 123.193 22.0582C123.234 22.2044 123.262 22.3507 123.277 22.4969C123.284 22.589 123.292 22.6972 123.299 22.8219C123.307 22.9465 123.32 23.0737 123.338 23.2036C123.357 23.3337 123.387 23.4568 123.427 23.5731C123.468 23.6896 123.529 23.7885 123.611 23.8697H121.863C121.766 23.6857 121.707 23.4664 121.685 23.2117C121.664 22.9671 121.63 22.7233 121.584 22.4806C121.525 22.1774 121.399 21.9554 121.206 21.8144C121.013 21.6735 120.697 21.6032 120.259 21.6032H118.511V23.8698H116.763V18.0693H121.05V18.0695ZM120.426 20.6935C120.827 20.6935 121.128 20.6284 121.328 20.4985C121.529 20.3685 121.629 20.1573 121.629 19.8649C121.629 19.5832 121.529 19.3787 121.328 19.2514C121.128 19.1243 120.827 19.0605 120.426 19.0605H118.511V20.6935H120.426ZM130.749 18.0695V19.1418H126.551V20.3847H130.404V21.3758H126.551V22.7976H130.838V23.8699H124.802V18.0695H130.749Z" fill="#6D7782"/>
</svg>

<svg width="149" height="24" viewBox="0 0 149 24" fill="none" xmlns="http://www.w3.org/2000/svg"><path d="M110.419 8.923c.089 2.308.233 5.074-6.151 5.105h-6.37c-6.488.022-5.963-3.446-6.167-5.296V3.637c0-1.989 1.137-3.637 6.196-3.616h5.903c5.539-.021 6.633 1.627 6.633 3.616v.978h-7.317c0-1.233-.365-1.999-1.444-2.105h-1.18c-1.08-.011-1.444.967-1.444 2.201v3.17c.102 1.245.044 3.244 1.619 3.255h.845c1.268.02 1.487-.968 1.56-2.223l7.317.01zM43.487.193l-2.274 9.835-2.8-9.836h-9.2l-2.815 9.836-2.26-9.836H17.14l4.069 13.655H32.04l1.793-8.68 1.75 8.68h10.85L50.485.192h-6.999zm11.164 0l-5.542 13.65h7.395l.657-1.968h5.308l.715 1.968h7.656L65.079.193H54.651zm5.265 4.117l1.663 4.862H58.15l1.765-4.862zm22.839 5.734c0 .49-.51.948-1.196.905h-2.23V8.076h2.187c.67 0 1.239.415 1.239.905v1.063zm-3.427-7.351h2.144c.671 0 1.24.414 1.24.904v.968c0 .49-.569.904-1.24.904h-2.144V2.693zm8.46 3.776c2.814-.266 2.697-2.52 2.697-2.52V2.734C90.5.926 89.041.139 87.175.192H71.628v13.662H85.41c1.823.042 5.235-.182 5.279-3.267l.015-1.107s.073-2.457-2.917-3.01zm31.502-1.83c0-1.234.364-2.213 1.443-2.202h2.129c1.05-.01 1.575.968 1.532 2.203v3.234c0 1.213-.103 3.202-1.692 3.213h-1.648c-1.575-.01-1.75-1.957-1.765-3.213l.001-3.234zm-7.527-1.01v5.096c.102 1.968.089 5.288 6.17 5.299h7.73c6.112-.011 6.169-3.347 6.198-5.286V3.625c-.003-1.987-2.232-3.613-4.955-3.614h-10.187c-2.726.001-4.956 1.63-4.956 3.618z" fill="#005AA9"/><path d="M23.686 19.617a1.524 1.524 0 00-.39-.32 2.282 2.282 0 00-1.146-.293c-.394 0-.728.055-1.003.166-.269.107-.498.26-.668.447-.17.187-.295.4-.373.638-.078.242-.118.49-.117.74 0 .243.04.48.117.71.078.23.202.437.373.621.17.184.394.332.668.443.275.111.61.167 1.003.167.534 0 .952-.12 1.253-.358.3-.238.484-.552.55-.942h1.693c-.044.363-.16.69-.345.983-.186.292-.43.541-.735.747a3.49 3.49 0 01-1.069.471A5.25 5.25 0 0122.15 24a5.417 5.417 0 01-1.643-.232 3.715 3.715 0 01-1.23-.637 2.8 2.8 0 01-.77-.955 2.66 2.66 0 01-.266-1.182 2.751 2.751 0 011.035-2.177 3.692 3.692 0 011.23-.65 5.337 5.337 0 011.644-.236c.438 0 .852.046 1.241.138.39.093.739.226 1.047.402.308.177.562.394.763.654.2.26.326.558.378.894h-1.692a.884.884 0 00-.2-.402zm8.998 3.81c-.6.382-1.432.573-2.494.573-1.077 0-1.91-.19-2.5-.569-.59-.379-.886-.964-.886-1.755V18.07h1.749v3.607c0 .158.018.312.055.464a.832.832 0 00.234.401 1.3 1.3 0 00.496.285c.211.073.495.11.852.11.623 0 1.054-.102 1.292-.305.237-.203.356-.521.356-.955V18.07h1.748v3.607c0 .786-.3 1.37-.901 1.751zm3.742-.987c.097.136.225.245.384.33.16.083.347.145.563.186.215.04.438.061.668.061.156 0 .323-.01.5-.029.175-.017.344-.054.502-.11.152-.05.285-.127.39-.223a.468.468 0 00.156-.361.449.449 0 00-.206-.382 1.809 1.809 0 00-.54-.243 6.971 6.971 0 00-.758-.171c-.287-.05-.573-.104-.857-.163a9.67 9.67 0 01-.869-.199 3.411 3.411 0 01-.757-.304 1.665 1.665 0 01-.54-.468 1.112 1.112 0 01-.206-.678c0-.298.087-.556.262-.776.174-.219.402-.402.684-.548.283-.146.602-.254.958-.325.349-.07.708-.105 1.07-.105.415 0 .814.034 1.197.101.382.068.721.178 1.019.329.295.15.537.35.707.581a1.4 1.4 0 01.261.857h-1.692a.82.82 0 00-.15-.43.873.873 0 00-.34-.269 1.785 1.785 0 00-.485-.138 4.051 4.051 0 00-.596-.04c-.14 0-.282.01-.423.032a1.4 1.4 0 00-.384.114.894.894 0 00-.284.203.44.44 0 00-.111.309c0 .114.03.206.089.276.059.07.176.135.35.195.175.06.416.12.724.179.402.077.805.153 1.209.227.148.022.354.061.618.118.263.057.525.147.785.272.26.125.484.291.674.5.189.208.284.475.284.8 0 .265-.071.512-.212.74-.141.227-.35.423-.63.588a3.536 3.536 0 01-1.035.386 6.611 6.611 0 01-1.43.138c-.439 0-.864-.04-1.276-.118a3.838 3.838 0 01-1.091-.37 2.132 2.132 0 01-.752-.641 1.495 1.495 0 01-.267-.926h1.693c0 .195.048.36.144.495zm5.267-3.298V18.07h6.515v1.072h-2.383v4.728h-1.748v-4.728h-2.384zm7.35.646c.178-.371.434-.695.769-.971a3.694 3.694 0 011.23-.65 5.337 5.337 0 011.643-.236c.616 0 1.165.079 1.648.236a3.7 3.7 0 011.225.65 2.75 2.75 0 011.036 2.177c0 .422-.09.816-.267 1.182a2.798 2.798 0 01-.769.955c-.334.27-.742.483-1.225.637-.483.155-1.032.232-1.648.232a5.418 5.418 0 01-1.643-.232 3.718 3.718 0 01-1.23-.637 2.8 2.8 0 01-.769-.955 2.662 2.662 0 01-.267-1.182c0-.433.09-.835.267-1.206zm1.598 1.917c.078.23.203.437.373.621.171.184.394.332.668.443.275.111.61.167 1.003.167.393 0 .727-.056 1.002-.167.275-.11.497-.258.668-.443.17-.184.295-.39.373-.621a2.2 2.2 0 00.117-.71c0-.255-.039-.502-.117-.74a1.738 1.738 0 00-.373-.638c-.17-.186-.4-.34-.668-.447-.275-.11-.609-.166-1.002-.166-.394 0-.728.055-1.003.166-.269.107-.498.26-.668.447-.17.187-.295.4-.373.638-.078.242-.117.49-.116.74 0 .243.038.48.116.71zm9.605-3.635l1.86 3.988h.022l1.76-3.988h2.461v5.8h-1.637v-4.11h-.022l-1.949 4.11h-1.347l-1.95-4.07h-.022v4.07h-1.636v-5.8h2.46zm13.586 0v1.072h-4.198v1.243h3.853v.99h-3.853v1.423h4.288v1.072h-6.036v-5.8h5.947zm5.557 0c.357 0 .678.041.964.125.285.084.53.2.735.346.202.144.36.317.467.507.108.193.162.4.162.622 0 .341-.099.636-.295.885-.197.25-.518.439-.964.569v.016c.215.044.394.11.535.2a1.23 1.23 0 01.54.718c.04.146.069.293.084.439.007.092.015.2.022.325.007.125.02.252.04.382.017.13.047.253.088.37.04.116.102.214.184.296h-1.749a1.731 1.731 0 01-.178-.658 7.287 7.287 0 00-.1-.731c-.06-.304-.186-.526-.379-.667-.193-.14-.508-.21-.946-.21H76.85v2.266h-1.748v-5.8h4.287zm-.623 2.623c.4 0 .701-.065.902-.195.2-.13.3-.34.3-.633 0-.282-.1-.486-.3-.614-.2-.127-.501-.19-.902-.19H76.85v1.633h1.916zm12.572-1.076a1.525 1.525 0 00-.39-.32 2.068 2.068 0 00-.528-.216 2.439 2.439 0 00-.618-.077c-.394 0-.728.055-1.003.166-.269.107-.498.26-.668.447-.17.187-.295.4-.373.638-.078.242-.118.49-.117.74 0 .243.04.48.117.71.078.23.202.437.373.621.171.184.394.332.668.443.275.111.609.167 1.003.167.534 0 .952-.12 1.252-.358.301-.238.485-.552.552-.942h1.692c-.044.363-.16.69-.345.983a2.55 2.55 0 01-.735.747 3.49 3.49 0 01-1.069.471 5.25 5.25 0 01-1.347.163 5.417 5.417 0 01-1.643-.232 3.715 3.715 0 01-1.23-.637 2.802 2.802 0 01-.77-.955 2.662 2.662 0 01-.266-1.182 2.753 2.753 0 011.035-2.177 3.692 3.692 0 011.231-.65 5.335 5.335 0 011.643-.236c.438 0 .851.046 1.241.138.39.093.74.226 1.047.402.308.177.563.394.763.654.2.26.327.558.379.894h-1.693a.887.887 0 00-.2-.402zm9.099-1.547v1.072h-4.199v1.243h3.853v.99h-3.853v1.423h4.288v1.072H94.49v-5.8h5.947zm3.006 0l3.319 3.89h.023v-3.89h1.636v5.8h-1.748l-3.307-3.883h-.023v3.883h-1.637v-5.8h1.737zm5.892 1.072V18.07h6.514v1.072h-2.383v4.728h-1.748v-4.728h-2.383zm11.715-1.072c.356 0 .677.041.963.125.286.084.531.2.735.346.202.144.361.317.468.507.107.193.161.4.161.622 0 .341-.098.636-.295.885-.197.25-.518.439-.963.569v.016c.215.044.393.11.534.2a1.224 1.224 0 01.54.719c.041.145.069.292.084.438.007.092.015.2.022.325.008.125.021.252.039.382.019.13.049.253.089.37a.77.77 0 00.184.296h-1.748a1.717 1.717 0 01-.178-.658 7.26 7.26 0 00-.101-.731c-.059-.304-.185-.526-.378-.667-.193-.14-.509-.21-.947-.21h-1.748v2.266h-1.748v-5.8h4.287zm-.624 2.623c.401 0 .702-.065.902-.195.201-.13.301-.34.301-.633 0-.282-.1-.486-.301-.614-.2-.127-.501-.19-.902-.19h-1.915v1.633h1.915zm10.323-2.623v1.072h-4.198v1.243h3.853v.99h-3.853v1.423h4.287v1.072h-6.036v-5.8h5.947z" fill="#6D7782"/></svg>
